icon-themes/breeze_svg/cmd/sc_insertbreak.svg

<svg viewBox="0 0 16 16" xmlns="http://www.w3.org/2000/svg"><path d="m3 2v3h1 9v-1-2zm1 1h8v1h-8zm-1 5v1 5h2v-1h-1v-4h8v1h-3v1h4v-3h-9z" fill="#4d4d4d"/><path d="m2 6v1h2v-1zm5 0v1h2v-1zm5 0v1h2v-1z" fill="#1d99f3"/><path d="m7 12c-.55228 0-1 .44772-1 1s.44772 1 1 1 1-.44772 1-1-.44772-1-1-1zm3 0c-.55228 0-1 .44772-1 1s.44772 1 1 1 1-.44772 1-1-.44772-1-1-1zm3 0c-.55228 0-1 .44772-1 1s.44772 1 1 1 1-.44772 1-1-.44772-1-1-1z" fill="#f47750"/></svg>

<svg xmlns="http://www.w3.org/2000/svg" viewBox="0 0 16 16">
 <path 
     style="fill:#4d4d4d" 
     d="M 3 2 L 3 5 L 4 5 L 13 5 L 13 4 L 13 2 L 3 2 z M 4 3 L 12 3 L 12 4 L 4 4 L 4 3 z M 3 8 L 3 9 L 3 14 L 5 14 L 5 13 L 4 13 L 4 9 L 12 9 L 12 10 L 9 10 L 9 11 L 13 11 L 13 8 L 4 8 L 3 8 z "
     />
 <path 
     style="fill:#1d99f3" 
     d="M 2 6 L 2 7 L 4 7 L 4 6 L 2 6 z M 7 6 L 7 7 L 9 7 L 9 6 L 7 6 z M 12 6 L 12 7 L 14 7 L 14 6 L 12 6 z "
     />
 <path 
     style="fill:#f47750" 
     d="M 7 12 C 6.44772 12 6 12.44772 6 13 C 6 13.55228 6.44772 14 7 14 C 7.55228 14 8 13.55228 8 13 C 8 12.44772 7.55228 12 7 12 z M 10 12 C 9.44772 12 9 12.44772 9 13 C 9 13.55228 9.44772 14 10 14 C 10.55228 14 11 13.55228 11 13 C 11 12.44772 10.55228 12 10 12 z M 13 12 C 12.44772 12 12 12.44772 12 13 C 12 13.55228 12.44772 14 13 14 C 13.55228 14 14 13.55228 14 13 C 14 12.44772 13.55228 12 13 12 z "
     />
 </svg>
